tools/download-figma-icons/icons/outlined-large/sun.svg

<svg width="64" height="64" viewBox="0 0 64 64" fill="none" xmlns="http://www.w3.org/2000/svg">
<path fill-rule="evenodd" clip-rule="evenodd" d="M32 12.1484C31.171 12.1484 30.5 11.4764 30.5 10.6484V1.50037C30.5 0.671366 31.171 0.000366211 32 0.000366211C32.829 0.000366211 33.5 0.671366 33.5 1.50037V10.6484C33.5 11.4764 32.829 12.1484 32 12.1484ZM18.148 32.0004C18.148 24.3624 24.362 18.1484 32 18.1484C39.638 18.1484 45.852 24.3624 45.852 32.0004C45.852 39.6374 39.638 45.8514 32 45.8514C24.362 45.8514 18.148 39.6374 18.148 32.0004ZM15.148 32.0004C15.148 41.2924 22.708 48.8514 32 48.8514C41.292 48.8514 48.852 41.2924 48.852 32.0004C48.852 22.7084 41.292 15.1484 32 15.1484C22.708 15.1484 15.148 22.7084 15.148 32.0004ZM40.1348 32C40.1348 32.828 40.8058 33.5 41.6348 33.5C42.4638 33.5 43.1348 32.828 43.1348 32C43.1348 25.86 38.1398 20.865 31.9998 20.865C31.1718 20.865 30.4998 21.537 30.4998 22.365C30.4998 23.193 31.1718 23.865 31.9998 23.865C36.4858 23.865 40.1348 27.515 40.1348 32ZM15.8413 17.9633C16.1343 18.2563 16.5183 18.4023 16.9023 18.4023C17.2863 18.4023 17.6703 18.2563 17.9633 17.9633C18.5483 17.3773 18.5483 16.4273 17.9633 15.8413L11.4933 9.37327C10.9073 8.78727 9.95827 8.78727 9.37227 9.37327C8.78627 9.95927 8.78627 10.9083 9.37227 11.4943L15.8413 17.9633ZM10.6484 33.5H1.50037C0.671366 33.5 0.000366211 32.828 0.000366211 32C0.000366211 31.172 0.671366 30.5 1.50037 30.5H10.6484C11.4774 30.5 12.1484 31.172 12.1484 32C12.1484 32.828 11.4774 33.5 10.6484 33.5ZM9.37207 54.6284C9.66507 54.9214 10.0491 55.0674 10.4331 55.0674C10.8171 55.0674 11.2011 54.9214 11.4941 54.6284L17.9631 48.1584C18.5491 47.5724 18.5491 46.6234 17.9631 46.0374C17.3771 45.4514 16.4281 45.4514 15.8421 46.0374L9.37207 52.5064C8.78707 53.0924 8.78707 54.0424 9.37207 54.6284ZM32 64C31.171 64 30.5 63.328 30.5 62.5V53.352C30.5 52.523 31.171 51.852 32 51.852C32.829 51.852 33.5 52.523 33.5 53.352V62.5C33.5 63.328 32.829 64 32 64ZM52.5059 54.6284C52.7989 54.9214 53.1829 55.0674 53.5669 55.0674C53.9509 55.0674 54.3349 54.9214 54.6279 54.6284C55.2129 54.0424 55.2129 53.0924 54.6279 52.5064L48.1579 46.0374C47.5719 45.4514 46.6229 45.4514 46.0369 46.0374C45.4509 46.6234 45.4509 47.5724 46.0369 48.1584L52.5059 54.6284ZM62.5 33.5H53.352C52.523 33.5 51.852 32.828 51.852 32C51.852 31.172 52.523 30.5 53.352 30.5H62.5C63.329 30.5 64 31.172 64 32C64 32.828 63.329 33.5 62.5 33.5ZM46.0367 17.9633C46.3297 18.2563 46.7137 18.4023 47.0977 18.4023C47.4817 18.4023 47.8657 18.2563 48.1587 17.9633L54.6277 11.4943C55.2137 10.9083 55.2137 9.95927 54.6277 9.37327C54.0417 8.78727 53.0927 8.78727 52.5067 9.37327L46.0367 15.8413C45.4517 16.4273 45.4517 17.3773 46.0367 17.9633Z" fill="black"/>
</svg>

<svg xmlns="http://www.w3.org/2000/svg" width="64" height="64" fill="none" viewBox="0 0 64 64"><path fill="currentColor" fill-rule="evenodd" d="M32 12.148a1.5 1.5 0 0 1-1.5-1.5V1.5a1.5 1.5 0 1 1 3 0v9.148a1.5 1.5 0 0 1-1.5 1.5M18.148 32c0-7.638 6.214-13.852 13.852-13.852S45.852 24.362 45.852 32c0 7.637-6.214 13.851-13.852 13.851s-13.852-6.214-13.852-13.85m-3 0c0 9.292 7.56 16.851 16.852 16.851s16.852-7.559 16.852-16.85c0-9.293-7.56-16.853-16.852-16.853S15.148 22.708 15.148 32m24.987 0a1.5 1.5 0 1 0 3 0c0-6.14-4.995-11.135-11.135-11.135a1.5 1.5 0 0 0 0 3c4.486 0 8.135 3.65 8.135 8.135M15.84 17.963a1.496 1.496 0 0 0 2.122 0 1.5 1.5 0 0 0 0-2.122l-6.47-6.468a1.5 1.5 0 1 0-2.12 2.121zM10.648 33.5H1.5a1.5 1.5 0 1 1 0-3h9.148a1.5 1.5 0 1 1 0 3M9.372 54.628a1.496 1.496 0 0 0 2.122 0l6.47-6.47a1.5 1.5 0 1 0-2.122-2.12l-6.47 6.468a1.5 1.5 0 0 0 0 2.122M32 64a1.5 1.5 0 0 1-1.5-1.5v-9.148a1.5 1.5 0 1 1 3 0V62.5A1.5 1.5 0 0 1 32 64m20.506-9.372a1.495 1.495 0 0 0 2.122 0 1.5 1.5 0 0 0 0-2.122l-6.47-6.469a1.5 1.5 0 1 0-2.121 2.121zM62.5 33.5h-9.148a1.5 1.5 0 1 1 0-3H62.5a1.5 1.5 0 1 1 0 3M46.037 17.963a1.495 1.495 0 0 0 2.122 0l6.469-6.469a1.5 1.5 0 1 0-2.121-2.12l-6.47 6.467a1.5 1.5 0 0 0 0 2.122" clip-rule="evenodd"/></svg>
